src/lib/packages/icons/src/assets/line/briefcase-times.svg

<svg xmlns="http://www.w3.org/2000/svg" width="24" height="24" fill="none"><path fill="currentColor" d="M18 5.25h-1.25V4c0-.965-.785-1.75-1.75-1.75H9c-.965 0-1.75.785-1.75 1.75v1.25H6C3.582 5.25 2.25 6.582 2.25 9v9c0 2.418 1.332 3.75 3.75 3.75h9a.75.75 0 0 0 0-1.5H6c-1.577 0-2.25-.673-2.25-2.25v-4.62c.95.411 2.473.962 4.591 1.395.691.14 1.409-.165 1.821-.782.446-.666 1.133-1.063 1.838-1.063.705 0 1.392.397 1.837 1.063.346.517.904.816 1.483.816.112 0 .225-.011.337-.034 2.119-.433 3.642-.984 4.592-1.395V15a.75.75 0 0 0 1.5 0V9C21.75 6.582 20.418 5.25 18 5.25ZM8.75 4A.25.25 0 0 1 9 3.75h6a.25.25 0 0 1 .25.25v1.25h-6.5V4Zm11.054 7.939c-.865.386-2.339.936-4.446 1.366-.106.021-.214-.058-.274-.146-.725-1.083-1.877-1.729-3.084-1.729s-2.359.646-3.084 1.73c-.059.088-.166.168-.274.145-2.106-.43-3.581-.98-4.446-1.366a.744.744 0 0 1-.446-.687V9c0-1.577.673-2.25 2.25-2.25h12c1.577 0 2.25.673 2.25 2.25v2.253a.742.742 0 0 1-.446.686ZM12.02 14a1 1 0 0 1 0 2 1.005 1.005 0 0 1-1.005-1c0-.552.442-1 .995-1h.01Zm9.51 4.53-.97.97.97.97a.75.75 0 0 1-1.06 1.061l-.97-.97-.97.97a.748.748 0 0 1-1.06 0 .75.75 0 0 1 0-1.061l.97-.97-.97-.97a.75.75 0 1 1 1.061-1.061l.97.97.97-.97a.75.75 0 1 1 1.059 1.061Z"/></svg>

<svg width="24" height="24" viewBox="0 0 24 24" fill="none" xmlns="http://www.w3.org/2000/svg">
<path d="M18 5.25H16.75V4C16.75 3.035 15.965 2.25 15 2.25H9C8.035 2.25 7.25 3.035 7.25 4V5.25H6C3.582 5.25 2.25 6.582 2.25 9V18C2.25 20.418 3.582 21.75 6 21.75H15C15.414 21.75 15.75 21.414 15.75 21C15.75 20.586 15.414 20.25 15 20.25H6C4.423 20.25 3.75 19.577 3.75 18V13.38C4.7 13.791 6.223 14.342 8.341 14.775C9.032 14.915 9.74999 14.61 10.162 13.993C10.608 13.327 11.295 12.9301 12 12.9301C12.705 12.9301 13.392 13.327 13.837 13.993C14.183 14.51 14.741 14.809 15.32 14.809C15.432 14.809 15.545 14.798 15.657 14.775C17.776 14.342 19.299 13.791 20.249 13.38V15C20.249 15.414 20.585 15.75 20.999 15.75C21.413 15.75 21.749 15.414 21.749 15V9C21.75 6.582 20.418 5.25 18 5.25ZM8.75 4C8.75 3.862 8.862 3.75 9 3.75H15C15.138 3.75 15.25 3.862 15.25 4V5.25H8.75V4ZM19.804 11.939C18.939 12.325 17.465 12.8751 15.358 13.3051C15.252 13.3261 15.144 13.2471 15.084 13.1591C14.359 12.0761 13.207 11.4301 12 11.4301C10.793 11.4301 9.64099 12.0761 8.91599 13.1591C8.85699 13.2481 8.75 13.3281 8.642 13.3051C6.536 12.8751 5.06101 12.325 4.19601 11.939C3.92101 11.816 3.75 11.553 3.75 11.252V9.11804V9C3.75 7.423 4.423 6.75 6 6.75H18C19.577 6.75 20.25 7.423 20.25 9V9.11902V11.2531C20.25 11.5541 20.079 11.817 19.804 11.939ZM12.02 14C12.572 14 13.02 14.448 13.02 15C13.02 15.552 12.572 16 12.02 16C11.468 16 11.015 15.552 11.015 15C11.015 14.448 11.457 14 12.01 14H12.02ZM21.53 18.53L20.56 19.5L21.53 20.47C21.823 20.763 21.823 21.238 21.53 21.531C21.384 21.677 21.192 21.751 21 21.751C20.808 21.751 20.616 21.678 20.47 21.531L19.5 20.561L18.53 21.531C18.384 21.677 18.192 21.751 18 21.751C17.808 21.751 17.616 21.678 17.47 21.531C17.177 21.238 17.177 20.763 17.47 20.47L18.44 19.5L17.47 18.53C17.177 18.237 17.177 17.762 17.47 17.469C17.763 17.176 18.238 17.176 18.531 17.469L19.501 18.439L20.471 17.469C20.764 17.176 21.239 17.176 21.532 17.469C21.825 17.762 21.823 18.237 21.53 18.53Z" fill="currentColor"/>
</svg>
